X: 28177
T: Mrs Ryan's
R: polka
M: 2/4
K: Gmajor
|:F/E/|DG BG|dG B>G|FG AB|cE F>E|
DG BG|DG F2-|FG AB|cF G:|
|:B/d/|ga/g/ f>e|dB BA/B/|cA FA|ed de/f/|
g/a/g/f/ gf/e/|dB BA/B/|cA FA|G3:|

